;FLAVOR:Marlin
;TIME:7947
;Filament used: 6.98735m
;Layer height: 0.2
;MINX:70.25
;MINY:68.162
;MINZ:0.2
;MAXX:149.758
;MAXY:170.536
;MAXZ:23
;Generated with Cura_SteamEngine 5.0.0
M140 S60
M105
M190 S60
M104 S210
M105
M109 S210
M82 ;absolute extrusion mode
; Ender 3 Custom Start G-code
G92 E0 ; Reset Extruder
G28 ; Home all axes
G29 ; BLTouch Leveling
G1 Z2.0 F3000 ; Move Z Axis up little to prevent scratching of Heat Bed
G1 X0.1 Y20 Z0.3 F5000.0 ; Move to start position
G1 X0.1 Y200.0 Z0.3 F1500.0 E15 ; Draw the first line
G1 X0.4 Y200.0 Z0.3 F5000.0 ; Move to side a little
G1 X0.4 Y20 Z0.3 F1500.0 E30 ; Draw the second line
G92 E0 ; Reset Extruder
G1 Z2.0 F3000 ; Move Z Axis up little to prevent scratching of Heat Bed
G1 X5 Y20 Z0.3 F5000.0 ; Move over to prevent blob squish
G92 E0
G92 E0
G1 F2700 E-5
;LAYER_COUNT:115
;LAYER:0
M107
G0 F6000 X73.457 Y71.713 Z0.2
G0 X70.251 Y80.18
;TYPE:SKIRT
G1 F2700 E0
G1 F1200 X70.26 Y79.515 E0.03318
G1 X70.313 Y78.558 E0.081
G1 X70.446 Y77.608 E0.12886
G1 X70.657 Y76.673 E0.17668
G1 X70.945 Y75.758 E0.22453
G1 X71.309 Y74.871 E0.27237
G1 X71.745 Y74.017 E0.32021
G1 X72.251 Y73.202 E0.36807
G1 X72.823 Y72.432 E0.41592
G1 X73.457 Y71.713 E0.46375
G1 X74.149 Y71.049 E0.51159
G1 X74.894 Y70.445 E0.55944
G1 X75.686 Y69.905 E0.60726
G1 X76.521 Y69.433 E0.65512
G1 X77.392 Y69.032 E0.70296
G1 X78.294 Y68.706 E0.75081
G1 X79.219 Y68.455 E0.79862
G1 X80.163 Y68.282 E0.8465
G1 X81.437 Y68.176 E0.91028
G1 X82.08 Y68.162 E0.94237
G1 X91.043 Y68.162 E1.38954
G1 X91.931 Y68.174 E1.43384
G1 X92.889 Y68.229 E1.48172
G1 X93.695 Y68.338 E1.52229
G1 X96.262 Y68.778 E1.65223
G1 X98.709 Y69.127 E1.77555
G1 X101.181 Y69.409 E1.89968
G1 X103.728 Y69.626 E2.02721
G1 X106.198 Y69.767 E2.15064
G1 X108.688 Y69.838 E2.27491
G1 X111.184 Y69.838 E2.39944
G1 X113.715 Y69.767 E2.52576
G1 X116.206 Y69.627 E2.65023
G1 X118.708 Y69.415 E2.77551
G1 X121.17 Y69.136 E2.89912
G1 X123.697 Y68.777 E3.02646
G1 X126.311 Y68.338 E3.1587
G1 X127.262 Y68.214 E3.20655
G1 X127.937 Y68.176 E3.24028
G1 X128.58 Y68.162 E3.27236
G1 X137.691 Y68.163 E3.72691
G1 X138.389 Y68.172 E3.76174
G1 X139.347 Y68.224 E3.8096
G1 X140.297 Y68.356 E3.85745
G1 X141.232 Y68.567 E3.90527
G1 X142.147 Y68.855 E3.95313
G1 X143.035 Y69.218 E4.00099
G1 X143.889 Y69.653 E4.04881
G1 X144.704 Y70.159 E4.09667
G1 X145.474 Y70.73 E4.14449
G1 X146.194 Y71.364 E4.19236
G1 X146.858 Y72.055 E4.24017
G1 X147.463 Y72.8 E4.28805
G1 X148.003 Y73.592 E4.33587
G1 X148.475 Y74.426 E4.38368
G1 X148.877 Y75.297 E4.43154
G1 X149.204 Y76.199 E4.47941
G1 X149.455 Y77.124 E4.52722
G1 X149.629 Y78.067 E4.57506
G1 X149.736 Y79.349 E4.63925
G1 X149.75 Y79.992 E4.67133
G1 X149.749 Y117.147 E6.525
G1 X149.74 Y117.776 E6.55639
G1 X149.758 Y120.159 E6.67528
G1 X149.745 Y120.544 E6.6945
G1 X149.75 Y158.3 E8.57815
G1 X149.739 Y159.185 E8.62231
G1 X149.686 Y160.143 E8.67018
G1 X149.553 Y161.092 E8.71799
G1 X149.342 Y162.028 E8.76585
G1 X149.053 Y162.942 E8.81368
G1 X148.689 Y163.83 E8.86156
G1 X148.253 Y164.683 E8.90935
G1 X147.747 Y165.498 E8.95721
G1 X147.174 Y166.267 E9.00506
G1 X146.54 Y166.987 E9.05292
G1 X145.848 Y167.651 E9.10077
G1 X145.103 Y168.254 E9.14858
G1 X144.311 Y168.794 E9.19641
G1 X143.476 Y169.266 E9.24426
G1 X142.604 Y169.667 E9.29214
G1 X141.703 Y169.993 E9.33995
G1 X140.777 Y170.244 E9.38781
G1 X139.834 Y170.416 E9.43563
G1 X138.563 Y170.522 E9.49927
G1 X137.92 Y170.536 E9.53135
G1 X133.525 Y170.535 E9.75062
G1 X132.824 Y170.525 E9.7856
G1 X131.867 Y170.471 E9.83342
G1 X130.59 Y170.273 E9.89789
G1 X129.596 Y170.059 E9.94862
G1 X128.712 Y169.855 E9.99388
G1 X126.232 Y169.356 E10.12009
G1 X123.778 Y168.933 E10.24432
G1 X121.3 Y168.578 E10.36921
G1 X118.792 Y168.292 E10.49515
G1 X116.315 Y168.08 E10.61918
G1 X113.813 Y167.936 E10.74421
G1 X111.317 Y167.864 E10.86879
G1 X108.823 Y167.862 E10.99321
G1 X106.295 Y167.932 E11.11938
G1 X103.801 Y168.071 E11.244
G1 X101.308 Y168.282 E11.36882
G1 X98.831 Y168.561 E11.49318
G1 X96.364 Y168.911 E11.61749
G1 X93.895 Y169.333 E11.74246
G1 X91.428 Y169.826 E11.86797
G1 X90.458 Y170.049 E11.91763
G1 X89.401 Y170.274 E11.97154
G1 X88.456 Y170.434 E12.01936
G1 X87.176 Y170.525 E12.08338
G1 X86.326 Y170.536 E12.12579
G1 X82.292 Y170.535 E12.32705
G1 X81.594 Y170.525 E12.36188
G1 X80.637 Y170.471 E12.4097
G1 X79.687 Y170.338 E12.45755
G1 X78.752 Y170.126 E12.50539
G1 X77.838 Y169.837 E12.55321
G1 X76.951 Y169.472 E12.60106
G1 X76.097 Y169.036 E12.6489
G1 X75.283 Y168.529 E12.69675
G1 X74.513 Y167.956 E12.74463
G1 X73.795 Y167.322 E12.79242
G1 X73.131 Y166.629 E12.8403
G1 X72.528 Y165.884 E12.88812
G1 X71.988 Y165.091 E12.93598
G1 X71.517 Y164.256 E12.98381
G1 X71.117 Y163.384 E13.03167
G1 X70.791 Y162.483 E13.07948
G1 X70.541 Y161.557 E13.12733
G1 X70.369 Y160.613 E13.1752
G1 X70.263 Y159.338 E13.23903
G1 X70.25 Y158.694 E13.27117
G1 X70.251 Y121.542 E15.12469
G1 X70.261 Y120.82 E15.16071
G1 X70.261 Y118.186 E15.29212
G1 X70.25 Y117.349 E15.33388
G1 X70.251 Y80.18 E17.18825
G0 F6000 X70.851 Y80.188
G1 F1200 X70.86 Y79.523 E17.22143
G1 X70.913 Y78.591 E17.26801
G1 X71.045 Y77.667 E17.31457
G1 X71.256 Y76.758 E17.36113
G1 X71.543 Y75.87 E17.40769
G1 X71.906 Y75.009 E17.4543
G1 X72.341 Y74.183 E17.50088
G1 X72.845 Y73.398 E17.54742
G1 X73.415 Y72.658 E17.59402
G1 X74.046 Y71.969 E17.64063
G1 X74.733 Y71.338 E17.68717
G1 X75.472 Y70.767 E17.73376
G1 X76.257 Y70.262 E17.78033
G1 X77.082 Y69.825 E17.82691
G1 X77.942 Y69.461 E17.8735
G1 X78.83 Y69.172 E17.92009
G1 X79.739 Y68.96 E17.96666
G1 X80.663 Y68.826 E18.01324
G1 X81.454 Y68.775 E18.05278
G1 X82.08 Y68.762 E18.08402
G1 X91.212 Y68.763 E18.53962
G1 X91.922 Y68.774 E18.57504
G1 X92.854 Y68.829 E18.62162
G1 X93.594 Y68.93 E18.65888
G1 X96.151 Y69.368 E18.78831
G1 X98.626 Y69.722 E18.91304
G1 X101.132 Y70.007 E19.03888
G1 X103.68 Y70.224 E19.16646
G1 X106.145 Y70.365 E19.28964
G1 X108.706 Y70.438 E19.41746
G1 X111.201 Y70.438 E19.54193
G1 X113.731 Y70.367 E19.6682
G1 X116.255 Y70.225 E19.79433
G1 X118.752 Y70.013 E19.91935
G1 X121.251 Y69.731 E20.04482
G1 X123.795 Y69.369 E20.17302
G1 X126.413 Y68.929 E20.30546
G1 X127.339 Y68.81 E20.35204
G1 X127.954 Y68.775 E20.38277
G1 X128.58 Y68.762 E20.41401
G1 X137.684 Y68.763 E20.86821
G1 X138.382 Y68.772 E20.90304
G1 X139.314 Y68.824 E20.94961
G1 X140.238 Y68.955 E20.99617
G1 X141.148 Y69.166 E21.04277
G1 X142.036 Y69.453 E21.08933
G1 X142.896 Y69.815 E21.13588
G1 X143.723 Y70.25 E21.1825
G1 X144.509 Y70.753 E21.22906
G1 X145.249 Y71.322 E21.27563
G1 X145.938 Y71.953 E21.32224
G1 X146.57 Y72.64 E21.36881
G1 X147.141 Y73.378 E21.41536
G1 X147.647 Y74.163 E21.46196
G1 X148.084 Y74.988 E21.50853
G1 X148.448 Y75.847 E21.55508
G1 X148.738 Y76.735 E21.60168
G1 X148.951 Y77.644 E21.64826
G1 X149.085 Y78.568 E21.69484
G1 X149.137 Y79.366 E21.73474
G1 X149.15 Y79.992 E21.76598
G1 X149.149 Y117.139 E23.61925
G1 X149.14 Y117.776 E23.65103
G1 X149.158 Y120.163 E23.77012
G1 X149.145 Y120.539 E23.78889
G1 X149.15 Y158.3 E25.6728
G1 X149.139 Y159.177 E25.71656
G1 X149.086 Y160.109 E25.76313
G1 X148.954 Y161.033 E25.80969
G1 X148.743 Y161.943 E25.8563
G1 X148.455 Y162.831 E25.90287
G1 X148.092 Y163.691 E25.94944
G1 X147.657 Y164.517 E25.99602
G1 X147.152 Y165.302 E26.04259
G1 X146.583 Y166.042 E26.08916
G1 X145.952 Y166.73 E26.13573
G1 X145.264 Y167.362 E26.18234
G1 X144.525 Y167.932 E26.2289
G1 X143.74 Y168.438 E26.2755
G1 X142.915 Y168.874 E26.32205
G1 X142.055 Y169.238 E26.36864
G1 X141.167 Y169.527 E26.41523
G1 X140.258 Y169.739 E26.4618
G1 X139.334 Y169.872 E26.50837
G1 X138.546 Y169.923 E26.54777
G1 X137.92 Y169.936 E26.57901
G1 X133.534 Y169.935 E26.79782
G1 X132.833 Y169.925 E26.8328
G1 X131.9 Y169.872 E26.87942
G1 X130.715 Y169.686 E26.93927
G1 X129.731 Y169.475 E26.98948
G1 X128.821 Y169.265 E27.03607
G1 X126.348 Y168.767 E27.16192
G1 X123.861 Y168.339 E27.28783
G1 X121.383 Y167.984 E27.41272
G1 X118.841 Y167.694 E27.54036
G1 X116.365 Y167.482 E27.66434
G1 X113.828 Y167.336 E27.79112
G1 X111.336 Y167.264 E27.9155
G1 X108.808 Y167.262 E28.04162
G1 X106.278 Y167.332 E28.16789
G1 X103.755 Y167.473 E28.29396
G1 X101.257 Y167.684 E28.41903
G1 X98.754 Y167.966 E28.5447
G1 X96.249 Y168.321 E28.67092
G1 X93.78 Y168.743 E28.79588
G1 X91.312 Y169.237 E28.92146
G1 X90.333 Y169.462 E28.97157
G1 X89.276 Y169.687 E29.02549
G1 X88.356 Y169.842 E29.07203
G1 X87.167 Y169.925 E29.1315
G1 X86.326 Y169.936 E29.17346
G1 X82.301 Y169.935 E29.37427
G1 X81.603 Y169.925 E29.40909
G1 X80.671 Y169.872 E29.45567
G1 X79.747 Y169.739 E29.50224
G1 X78.837 Y169.527 E29.54885
G1 X77.949 Y169.239 E29.59543
G1 X77.09 Y168.875 E29.64197
G1 X76.264 Y168.439 E29.68857
G1 X75.478 Y167.935 E29.73515
G1 X74.739 Y167.365 E29.78172
G1 X74.051 Y166.733 E29.82832
G1 X73.42 Y166.045 E29.8749
G1 X72.85 Y165.306 E29.92146
G1 X72.345 Y164.521 E29.96803
G1 X71.91 Y163.695 E30.0146
G1 X71.546 Y162.835 E30.06119
G1 X71.258 Y161.947 E30.10777
G1 X71.046 Y161.038 E30.15434
G1 X70.913 Y160.114 E30.20091
G1 X70.863 Y159.321 E30.24055
G1 X70.85 Y158.694 E30.27184
G1 X70.851 Y121.55 E32.12496
G1 X70.861 Y120.828 E32.16098
G1 X70.861 Y118.177 E32.29324
G1 X70.85 Y117.349 E32.33456
G1 X70.851 Y80.188 E34.18853
G0 F6000 X71.451 Y80.197
G1 F1200 X71.46 Y79.532 E34.22171
G1 X71.512 Y78.626 E34.26698
G1 X71.644 Y77.728 E34.31226
G1 X71.854 Y76.845 E34.35755
G1 X72.142 Y75.984 E34.40284
G1 X72.503 Y75.152 E34.44809
G1 X72.937 Y74.355 E34.49336
G1 X73.439 Y73.599 E34.53864
G1 X74.006 Y72.89 E34.58393
G1 X74.633 Y72.234 E34.6292
G1 X75.315 Y71.635 E34.67449
G1 X76.048 Y71.099 E34.71979
G1 X76.824 Y70.63 E34.76503
G1 X77.639 Y70.231 E34.8103
G1 X78.486 Y69.905 E34.85558
G1 X79.359 Y69.655 E34.90088
G1 X80.25 Y69.482 E34.94617
G1 X81.47 Y69.375 E35.00727
G1 X82.08 Y69.362 E35.03771
G1 X91.043 Y69.362 E35.48487
G1 X91.913 Y69.374 E35.52828
G1 X92.818 Y69.428 E35.57351
G1 X93.493 Y69.521 E35.60751
G1 X96.07 Y69.963 E35.73795
G1 X98.548 Y70.317 E35.86283
G1 X101.083 Y70.605 E35.99012
G1 X103.63 Y70.822 E36.11765
G1 X106.129 Y70.965 E36.24253
G1 X108.689 Y71.038 E36.3703
G1 X111.217 Y71.038 E36.49642
G1 X113.747 Y70.967 E36.62269
G1 X116.305 Y70.823 E36.75052
G1 X118.8 Y70.612 E36.87544
G1 X121.363 Y70.322 E37.00412
G1 X123.848 Y69.968 E37.12935
G1 X126.514 Y69.52 E37.26422
G1 X127.415 Y69.406 E37.30953
G1 X127.971 Y69.375 E37.33731
G1 X128.58 Y69.362 E37.3677
G1 X137.676 Y69.363 E37.8215
G1 X138.374 Y69.372 E37.85633
G1 X139.28 Y69.424 E37.90161
G1 X140.178 Y69.555 E37.94688
G1 X141.061 Y69.764 E37.99215
G1 X141.922 Y70.051 E38.03743
G1 X142.754 Y70.413 E38.0827
G1 X143.552 Y70.846 E38.12799
G1 X144.308 Y71.347 E38.17324
G1 X145.017 Y71.914 E38.21853
G1 X145.674 Y72.54 E38.26381
G1 X146.272 Y73.222 E38.30906
G1 X146.809 Y73.954 E38.35435
G1 X147.279 Y74.731 E38.39966
G1 X147.679 Y75.545 E38.44491
G1 X148.005 Y76.392 E38.49019
G1 X148.256 Y77.264 E38.53546
G1 X148.429 Y78.155 E38.58074
G1 X148.537 Y79.382 E38.64219
G1 X148.55 Y79.992 E38.67263
G1 X148.549 Y117.131 E40.5255
G1 X148.54 Y117.776 E40.55768
G1 X148.558 Y120.168 E40.67703
G1 X148.545 Y120.535 E40.69535
G1 X148.55 Y158.3 E42.57945
G1 X148.539 Y159.169 E42.62281
G1 X148.487 Y160.075 E42.66808
G1 X148.355 Y160.973 E42.71337
G1 X148.144 Y161.855 E42.75861
G1 X147.857 Y162.716 E42.80389
G1 X147.495 Y163.548 E42.84916
G1 X147.061 Y164.345 E42.89443
G1 X146.558 Y165.101 E42.93974
G1 X145.991 Y165.81 E42.98503
G1 X145.364 Y166.466 E43.0303
G1 X144.682 Y167.064 E43.07555
G1 X143.949 Y167.6 E43.12086
G1 X143.173 Y168.069 E43.16609
G1 X142.358 Y168.468 E43.21136
G1 X141.51 Y168.794 E43.25669
G1 X140.638 Y169.044 E43.30195
G1 X139.747 Y169.216 E43.34722
G1 X138.53 Y169.323 E43.40817
G1 X137.92 Y169.336 E43.43861
G1 X133.542 Y169.335 E43.65703
G1 X132.841 Y169.325 E43.69201
G1 X131.935 Y169.272 E43.73728
G1 X130.84 Y169.1 E43.79258
G1 X129.866 Y168.89 E43.84229
G1 X128.97 Y168.683 E43.88817
G1 X126.458 Y168.177 E44.01601
G1 X123.943 Y167.744 E44.14333
G1 X121.432 Y167.385 E44.26988
G1 X118.96 Y167.102 E44.39402
G1 X116.38 Y166.882 E44.5232
G1 X113.88 Y166.738 E44.64813
G1 X111.318 Y166.664 E44.776
G1 X108.791 Y166.662 E44.90208
G1 X106.265 Y166.732 E45.02815
G1 X103.738 Y166.873 E45.15442
G1 X101.178 Y167.089 E45.28259
G1 X98.673 Y167.372 E45.40836
G1 X96.169 Y167.727 E45.53453
G1 X93.672 Y168.153 E45.66091
G1 X91.182 Y168.651 E45.7876
G1 X90.208 Y168.875 E45.83746
G1 X89.151 Y169.1 E45.89137
G1 X88.256 Y169.25 E45.93665
G1 X87.158 Y169.325 E45.99155
G1 X86.326 Y169.336 E46.03307
G1 X82.309 Y169.335 E46.23348
G1 X81.611 Y169.325 E46.2683
G1 X80.705 Y169.272 E46.31358
G1 X79.808 Y169.139 E46.35882
G1 X78.925 Y168.928 E46.40411
G1 X78.064 Y168.641 E46.44939
G1 X77.232 Y168.278 E46.49468
G1 X76.436 Y167.844 E46.53991
G1 X75.68 Y167.341 E46.58522
G1 X74.972 Y166.773 E46.6305
G1 X74.316 Y166.146 E46.67577
G1 X73.718 Y165.463 E46.72106
G1 X73.183 Y164.73 E46.76634
G1 X72.714 Y163.953 E46.81162
G1 X72.315 Y163.138 E46.85689
G1 X71.99 Y162.291 E46.90215
G1 X71.741 Y161.418 E46.94744
G1 X71.569 Y160.527 E46.99271
G1 X71.463 Y159.305 E47.05391
G1 X71.45 Y158.694 E47.0844
G1 X71.451 Y121.558 E48.93712
G1 X71.461 Y120.836 E48.97314
G1 X71.461 Y118.168 E49.10625
G1 X71.45 Y117.349 E49.14711
G1 X71.451 Y80.197 E51.00064
G1 F2700 E46.00064
;MESH:CradlePoint PSU Wall Mount-PSU Mount Part 1.stl
G0 F6000 X81.085 Y80.286
G0 X82.374 Y80.286
G0 X82.58 Y116.832
G1 F2700 E51.00064
G0 F6000 X82.051 Y117.361
;TYPE:WALL-OUTER
G1 F1200 X137.95 Y117.362 E53.78945
G1 X137.95 Y84.662 E55.42086
G1 X137.95 Y79.962 E55.65534
G1 X128.55 Y79.962 E56.12431
G1 X128.55 Y107.662 E57.50627
G1 X128.491 Y107.842 E57.51572
G1 X128.347 Y107.946 E57.52458
G1 X128.25 Y107.962 E57.52949
G1 X91.75 Y107.962 E59.35048
G1 X91.57 Y107.903 E59.35993
G1 X91.466 Y107.759 E59.36879
G1 X91.45 Y107.662 E59.37369
G1 X91.45 Y79.962 E60.75565
G1 X82.05 Y79.962 E61.22462
G1 X82.051 Y117.361 E63.09046
G0 F6000 X82.651 Y116.761
;TYPE:WALL-INNER
G1 F1200 X137.35 Y116.762 E65.81941
G1 X137.35 Y84.662 E67.42088
G1 X137.35 Y80.562 E67.62543
G1 X129.15 Y80.562 E68.03453
G1 X129.15 Y107.662 E69.38656
G1 X129.102 Y107.953 E69.40127
G1 X128.973 Y108.2 E69.41518
G1 X128.788 Y108.385 E69.42823
G1 X128.541 Y108.514 E69.44213
G1 X128.25 Y108.562 E69.45684
G1 X91.75 Y108.562 E71.27784
G1 X91.459 Y108.514 E71.29255
G1 X91.212 Y108.384 E71.30648
G1 X91.027 Y108.2 E71.31949
G1 X90.898 Y107.953 E71.3334
G1 X90.85 Y107.662 E71.34811
G1 X90.85 Y80.562 E72.70013
G1 X82.65 Y80.562 E73.10923
G1 X82.651 Y116.761 E74.91521
G0 F6000 X83.191 Y116.221
;TYPE:SKIN
G1 F1200 X136.81 Y116.222 E77.59027
G1 X136.81 Y81.102 E79.34242
G1 X129.69 Y81.102 E79.69763
G1 X129.69 Y107.657 E81.02247
G1 X129.626 Y108.077 E81.04366
G1 X129.427 Y108.489 E81.06649
G1 X129.15 Y108.786 E81.08675
G1 X128.756 Y109.006 E81.10927
G1 X128.293 Y109.098 E81.13282
G1 X128.243 Y109.102 E81.13532
G1 X91.755 Y109.102 E82.95571
G1 X91.332 Y109.037 E82.97707
G1 X90.923 Y108.839 E82.99974
G1 X90.626 Y108.562 E83.02
G1 X90.405 Y108.168 E83.04254
G1 X90.314 Y107.712 E83.06573
G1 X90.31 Y107.662 E83.06824
G1 X90.31 Y81.102 E84.39332
G1 X83.19 Y81.102 E84.74854
G1 X83.191 Y116.221 E86.50063
G0 F6000 X83.676 Y115.92
G1 F1200 X83.49 Y115.734 E86.51376
G0 F6000 X83.49 Y114.885
G1 F1200 X84.524 Y115.92 E86.58675
G0 F6000 X85.373 Y115.92
G1 F1200 X83.49 Y114.037 E86.7196
G0 F6000 X83.49 Y113.188
G1 F1200 X86.221 Y115.92 E86.91232
G0 F6000 X87.07 Y115.92
G1 F1200 X83.49 Y112.34 E87.16491
G0 F6000 X83.49 Y111.491
G1 F1200 X87.918 Y115.92 E87.47737
G0 F6000 X88.767 Y115.92
G1 F1200 X83.49 Y110.643 E87.84969
G0 F6000 X83.49 Y109.794
G1 F1200 X89.615 Y115.92 E88.28187
G0 F6000 X90.464 Y115.92
G1 F1200 X83.49 Y108.946 E88.77393
G0 F6000 X83.49 Y108.097
G1 F1200 X91.312 Y115.92 E89.32585
G0 F6000 X92.161 Y115.92
G1 F1200 X83.49 Y107.249 E89.93763
G0 F6000 X83.49 Y106.4
G1 F1200 X93.009 Y115.92 E90.60928
G0 F6000 X93.858 Y115.92
G1 F1200 X83.49 Y105.551 E91.34084
G0 F6000 X83.49 Y104.703
G1 F1200 X94.707 Y115.92 E92.13226
G0 F6000 X95.555 Y115.92
G1 F1200 X83.49 Y103.854 E92.98354
G0 F6000 X83.49 Y103.006
G1 F1200 X96.404 Y115.92 E93.8947
G0 F6000 X97.252 Y115.92
